X: 1025
T: Hicaz Seyir
C: Şefik Gürmeriç
O: Turkey
F: http://compmusic.upf.edu/node/140
N: hicaz--seyir--duyek--1--sefik_gurmeric
N: makam= hicaz
N: form= seyir
N: usul= duyek = 8/4
M: 8/4
L: 1/16
K: C _7/8B ^f ^c 
Q: 1/4=120
%%MIDI tuningsystem comma53
A2 d4 dc cB BA A4  | z2 d4 e=f ed cd e4  | \
w:   |   | 
A2 d4 e2 ^3/4f2 g2 a=b ag  | 
w:   | 
^3/4f3e e=f ed d8  | d4 a4 a4 g2 ^3/4f2  | \
w:   |   | 
e2 d2 e2 ^3/4f2 g8  | ^3/4f2 g4 g2 g4 f2 e2  | 
w:   |   | 
e2 ^3/4f2 g2 a=b ag fe d4  | z2 e4 ^3/4f2 g4 =f2 e2  | \
w:   |   | 
d2 c2 B2 A2 BA GF G4  | 
w:   | 
A2 B4 A2 e2 d2 d2 c2  | c2 B2 cB BA A8  | |


